X:1
T:Title
%%score ( 1 2 ) { 3 | 4 }
L:1/8
Q:1/4=105
M:4/4
K:G
V:1 treble nm="Grand Piano, Soprano"
V:2 treble 
V:3 bass nm="Choir Pad, Garmisch-Partenkirchen"
V:4 bass 
V:1
 [B,D][DG] [GB]2- [GB][DG] [DF]2 | [DA]2 [DG]2 [B,D]4 | [DG][GB] [FA]2- [FA][FA] [DG]2 | %3
w: By~R.~A.~Martin,~1904 * * * * *|||
 [FA]2 [GB]6 | [GB][Gd] [DG]2- [DG][DB] [DA]2 | [B,G]2 [CE]2 [Ec]4 | [EB][EA] [DG]2 [GB]2 [FA]2- | %7
w: ||||
 [FA][DF] [DG]6 | [GB][GB] [Gc]2- [Gc][Gc] G2 | [FA]2 [GB]2 [GB]4 | %10
w: |||
 [DB][DB] [DA]2- [DA][Dd] [G^c]2 | [G^c]2 d2 =c4 | [GB][FA] G2- G/ z/ [DG] [FA]2 | %13
w: |||
 [GB]2 [Ee]2 [Dd]4 | [Ge][Ge] [Gd]2 G2 [GB]2- | [GB][DA] [DG]6- | [DG]2 z2 z4 |] %17
w: ||||
V:2
 x8 | x8 | x8 | x8 | x8 | x8 | x8 | x8 | x8 | x8 | x8 | z2 F6 | x8 | x8 | x8 | x8 | x8 |] %17
V:3
 G,B, D2- DB, A,2 | C2 B,2 G,4 | B,[K:treble]D D2- DD D2 | D2 D6 | D[K:bass]B, B,2- B,G, F,2 | %5
 G,2 G,2 G,4 | G,[K:treble]C B,2 D2 C2- | CA, B,6 | DD E2- EE D2 | D2 D2 D4 | G,G, A,2- A,A, A,2 | %11
 A,2 A,6 | G,C B,2- B,D D2 | G,2 G,2 G,4 | CC B,2 B,2 D2- | DC B,6- | B,2 z2 z4 |] %17
V:4
 z G, G,2- G,G, D,2 | D,2 G,2 z4 | G,G, D,2- D,C, B,,2 | D,2 G,6 | G,G, G,4 D,2 | E,2 C,2 C,4 | %6
 C,C, D,2 D,2 D,2- | D,D, G,,6 | G,G, C,2- C,C, B,,2 | D,2 [G,,G,]2 [G,,G,]4 | z2 F,2- F,F, E,2 | %11
 E,2 D,6 | D,D, G,2- G,B,, D,2 | z2 C,2 C,4 | C,C, D,2 D,2 D,2- | D,D, G,,6- | G,,2 z2 z4 |] %17

